X:1     %Music
T:Sussex Mummer's Carol
T:Righteous Joseph
B:Broadwood, L, 1908, English Traditional Songs and Carols, London, Boosey
N:Reprinted by EP Publishing Limited, Rowman & Littlefield, Totowa, New Jersey, 1974
Z:Lucy Broadwood
S:Sung by the Mummers from the neighbourhood of Horsham about 1878 -1881
F:http://www.folkinfo.org/songs
M:4/4     %Meter
L:1/8     %
K:F
(Fc) |c2 c2 A2 (GA) |B2 A2 G2
w:When_ right-eous Jo-seph_ wed-ded was
(FG) |A3 G A2 (3:2Bcd |c6 
w: Un--to a vir-tuous__ maid;
(cc) |d2 c2 Bc d2 | c2 (BA) (GA)
w:A_ glo-rious an-gel from Hea-ven_ came_ 
B2 |c3 d c2 B2 | (A2 c2 G2)
w: Un-to that vir-tuous maid,__ 
F2 |(c2 G2 A2) (dB) |(A4 G3) F |HF6  |]
w:Un-to__ that_ vir--tuous maid.
%End of file